woocommerce-payments/assets/images/payment-methods/afterpay-icon.svg

<svg width="32" height="20" viewBox="0 0 32 20" fill="none" xmlns="http://www.w3.org/2000/svg">
<rect x="0.5" y="0.5" width="31" height="19" rx="1.5" fill="#B2FCE4"/>
<path d="M21.8042 6.42066L19.9248 5.34522L18.0183 4.2535C16.7582 3.53111 15.183 4.43817 15.183 5.89381V6.13822C15.183 6.27401 15.2536 6.39893 15.3731 6.46411L16.2585 6.96924C16.5029 7.11046 16.8071 6.93122 16.8071 6.64878V6.06761C16.8071 5.77974 17.1167 5.6005 17.3665 5.74172L19.1047 6.74112L20.8373 7.73508C21.0872 7.8763 21.0872 8.24021 20.8373 8.38143L19.1047 9.37539L17.3665 10.3748C17.1167 10.516 16.8071 10.3368 16.8071 10.0489V9.76102C16.8071 8.30539 15.2319 7.39289 13.9718 8.12071L12.0707 9.21788L10.1914 10.2933C8.9258 11.0211 8.9258 12.8515 10.1914 13.5794L12.0707 14.6548L13.9772 15.7465C15.2373 16.4689 16.8125 15.5619 16.8125 14.1062V13.8618C16.8125 13.726 16.7419 13.6011 16.6224 13.5359L15.737 13.0308C15.4926 12.8896 15.1885 13.0688 15.1885 13.3512V13.9324C15.1885 14.2203 14.8789 14.3995 14.629 14.2583L12.8909 13.2589L11.1582 12.2649C10.9083 12.1237 10.9083 11.7598 11.1582 11.6186L12.8909 10.6246L14.629 9.62524C14.8789 9.48402 15.1885 9.66326 15.1885 9.95113V10.239C15.1885 11.6946 16.7636 12.6071 18.0238 11.8793L19.9303 10.7876L21.8096 9.71214C23.0697 8.97889 23.0697 7.14848 21.8042 6.42066Z" fill="black"/>
<rect x="0.5" y="0.5" width="31" height="19" rx="1.5" stroke="#DDDDDD"/>
</svg>

<svg width="32" height="20" fill="none" xmlns="http://www.w3.org/2000/svg"><rect x=".5" y=".5" width="31" height="19" rx="1.5" fill="#B2FCE4"/><path d="m21.804 6.42-1.88-1.075-1.906-1.091c-1.26-.723-2.835.184-2.835 1.64v.244c0 .136.07.26.19.326l.886.505a.367.367 0 0 0 .548-.32v-.581c0-.288.31-.467.56-.326l1.738 1 1.732.993c.25.141.25.505 0 .646l-1.732.994-1.739 1a.374.374 0 0 1-.559-.326V9.76c0-1.456-1.575-2.368-2.835-1.64L12.07 9.218l-1.88 1.075c-1.265.728-1.265 2.559 0 3.286l1.88 1.076 1.906 1.091c1.26.723 2.835-.184 2.835-1.64v-.244c0-.136-.07-.26-.19-.326l-.885-.505a.367.367 0 0 0-.549.32v.581c0 .288-.31.467-.559.326l-1.738-1-1.733-.993a.372.372 0 0 1 0-.646l1.733-.994 1.738-1c.25-.141.56.038.56.326v.288c0 1.456 1.575 2.368 2.835 1.64l1.906-1.091 1.88-1.076c1.26-.733 1.26-2.564-.006-3.291Z" fill="#000"/><rect x=".5" y=".5" width="31" height="19" rx="1.5" stroke="#DDD"/></svg>
